X:1
T: Schaatsenrijdersdans
C: Trad.
A: Boortmeerbeek
L: 1/8
Q: 1/4=120
M:C
Z: Bart Vanhaverbeke <bvanhaverbeke@unicall.be>
K:C
ga | d6 ga | c6 ga | ga ga ga ga | g4-g eBd ||
P: A
|| c4-c GEA | G4-G e^de | agec B2 c2 | d4-d f^ce | d4-d cAc |
   B4-B g^fg | bagf d2 ^d2 | e4-e eBd | c4-c GEA | G4-G e^de |
   g2 f2 A2 g2 | f4-f z e2 | e3 d ^cdba | g2 e2 d2 c2 | cBAG d2 e2 | c2 c2 c4 ||
P: B
K:F
|| c>A c>f e2 d2 | d>B d>g f2 e2 | e>d e>f a2 g2 | g>f e>d c4 |
   c>A c>f e2 d2 | d>B d>g f2 e2 | e>d e>f a2 g2 | f2 f2 f eBd ||
